dist/images/icons/line-s-dark-blue.svg

<svg width="596" height="564" viewBox="0 0 596 564" fill="none" xmlns="http://www.w3.org/2000/svg">
<path d="M591.841 230.876C597.971 222.224 595.926 210.241 587.274 204.111C578.622 197.981 566.639 200.026 560.509 208.678L591.841 230.876ZM258.233 534.243L265.248 552.116L258.233 534.243ZM207.181 355.883L219.384 370.706L207.181 355.883ZM408.856 159.819L423.044 172.754C423.329 172.441 423.604 172.119 423.868 171.788L408.856 159.819ZM0.560489 189.978C-0.314769 200.546 7.54217 209.822 18.1095 210.697L190.315 224.961C200.882 225.836 210.158 217.979 211.033 207.412C211.909 196.844 204.052 187.568 193.484 186.693L40.4132 174.014L53.0921 20.9429C53.9674 10.3755 46.1105 1.09944 35.5431 0.224148C24.9757 -0.651145 15.6996 7.20583 14.8243 17.7732L0.560489 189.978ZM560.509 208.678C529.898 251.884 477.317 319.454 419.465 381.206C360.881 443.738 299.496 497.422 251.218 516.371L265.248 552.116C322.41 529.679 388.972 469.919 447.487 407.459C506.734 344.219 560.404 275.248 591.841 230.876L560.509 208.678ZM251.218 516.371C221.031 528.22 201.451 526.801 189.787 521.41C178.593 516.235 170.733 505.558 167.696 489.304C161.393 455.577 178.006 404.77 219.384 370.706L194.978 341.06C144.465 382.645 120.705 446.885 129.951 496.358C134.687 521.705 148.583 544.667 173.676 556.265C198.298 567.646 229.536 566.133 265.248 552.116L251.218 516.371ZM219.384 370.706C293.975 309.299 386.277 213.081 423.044 172.754L394.668 146.883C358.246 186.833 267.414 281.428 194.978 341.06L219.384 370.706ZM423.868 171.788C434.786 158.096 446.05 141.283 454.192 124.032C462.068 107.344 468.311 87.5686 465.684 69.0154C464.304 59.2749 460.443 49.7239 453.099 41.6627C445.826 33.6785 436.145 28.258 424.86 25.0007C402.967 18.6808 372.596 19.7856 332.566 28.2961L340.552 65.8555C378.643 57.7571 401.495 58.2226 414.211 61.8932C420.232 63.6311 423.202 65.8633 424.713 67.5217C426.154 69.1033 427.209 71.1849 427.664 74.3996C428.706 81.7565 426.291 93.1815 419.466 107.644C412.906 121.543 403.428 135.831 393.845 147.849L423.868 171.788ZM332.566 28.2961C172.896 62.2428 49.9606 140.766 7.28538 176.913L32.1034 206.213C70.4701 173.716 187.739 98.3443 340.552 65.8555L332.566 28.2961Z" fill="#0039C8" fill-opacity="0.17"/>
</svg>

<svg xmlns="http://www.w3.org/2000/svg" width="596" height="564" fill="none"><path fill="#0039C8" fill-opacity=".17" d="M591.841 230.876c6.13-8.652 4.085-20.635-4.567-26.765s-20.635-4.085-26.765 4.567zM258.233 534.243l7.015 17.873zm-51.052-178.36 12.203 14.823zm201.675-196.064 14.188 12.935q.428-.47.824-.966zM.56 189.978c-.875 10.568 6.982 19.844 17.55 20.719l172.205 14.264c10.567.875 19.843-6.982 20.718-17.549.876-10.568-6.981-19.844-17.549-20.719l-153.07-12.679L53.091 20.943C53.967 10.376 46.111 1.099 35.543.224S15.7 7.206 14.824 17.774zm559.949 18.7c-30.611 43.206-83.192 110.776-141.044 172.528-58.584 62.532-119.969 116.216-168.247 135.165l14.03 35.745c57.162-22.437 123.724-82.197 182.239-144.657 59.247-63.24 112.917-132.211 144.354-176.583zM251.218 516.371c-30.187 11.849-49.767 10.43-61.431 5.039-11.194-5.175-19.054-15.852-22.091-32.106-6.303-33.727 10.31-84.534 51.688-118.598l-24.406-29.646c-50.513 41.585-74.273 105.825-65.027 155.298 4.736 25.347 18.632 48.309 43.725 59.907 24.622 11.381 55.86 9.868 91.572-4.149zm-31.834-145.665c74.591-61.407 166.893-157.625 203.66-197.952l-28.376-25.871c-36.422 39.95-127.254 134.545-199.69 194.177zm204.484-198.918c10.918-13.692 22.182-30.505 30.324-47.756 7.876-16.688 14.119-36.463 11.492-55.017-1.38-9.74-5.241-19.291-12.585-27.352-7.273-7.984-16.954-13.405-28.239-16.662-21.893-6.32-52.264-5.215-92.294 3.295l7.986 37.56c38.091-8.099 60.943-7.633 73.659-3.963 6.021 1.738 8.991 3.97 10.502 5.629 1.441 1.581 2.496 3.663 2.951 6.878 1.042 7.356-1.373 18.781-8.198 33.244-6.56 13.899-16.038 28.187-25.621 40.205zM332.566 28.296C172.896 62.243 49.961 140.766 7.286 176.913l24.817 29.3C70.47 173.716 187.74 98.344 340.552 65.856z"/></svg>
